X: 58
T: Al Dökeyim Gevheri
C: (Anonim)
O: Turkey
F: http://compmusic.upf.edu/node/140
N: rast--nefes--bektasidevrirevani--al_dokeyim--
N: makam= rast
N: form= nefes
N: usul= bektasidevrirevani = 13/8
M: 13/8
L: 1/16
K: C _1/4B ^f  
Q: 1/4=120
%%MIDI tuningsystem comma53
G4 G2G2 G4 A2G2 A2B8 | d4c2 B2A4A4BA G8  | \
w:  Al  dö ke yim  gev *  he ri    |  Gez me  ye ter  ser se *  ri    | 
c4 c2cB BA3 A4 G2B8 | 
w:  Bil mez *  *  sen  *  gel  be ri    | 
G4G2 B2A4A4G2 cdcB c4  | c4 c2cB BA3 A4 G2B8 | \
w:  Med hi ye  i  Hay de ri    |  Bil mez *  *  sen  *  gel  be ri    | 
G4G2 B2A4F2 E2F2 G8  | 
w:  Med hi ye i  Hay *  de ri    | 
|


